X:1
T:FERRY BRIDGE -- HORNPIPE
B:Cole's 1000 Fiddle Tunes
R:hornpipe
Z:Contributed by Bob Puckette 
M:C|
L:1/8
K:D
(uAG) |\
F>DA,>D F>Ad>A | G>FE>D C>E"4"A>G | F>Ad>f a>fe>d | ((3efe) ((3dcB) ((3ABA) ((3GFE) | 
F>DA,>D F>Ad>A | G>FE>D C>E"4"A>G | F>Ad>f e>AB>c | d2f2d2: | 
| :(uAB) |\
c>de>f g>fg>e | d>ef>g a>fd>f | g>fe>g f>ed>f | ((3efe) ((3dcB) ((3ABA) ((3GFE) | 
F>A,D>F "4"A>DF>"4"A | G>FE>D C>E"4"A>G | F>dA>F G>ge>c | d2f2d2: |
